X:884
T:Mamou Two Step
T:Heaven's Gate
S:Heaven's Gate film
Z:Nigel Gatherer
M:3/4
L:1/8
K:D
A/Bc/ | d3 dc>e | B4 c>B | A3 FE>D | D4 
A/Bc/ | d3 dc>e | B4 c>B | A3 FG>F | E4 
E>F   | A2 A>FE>F | G4 E>F | A>B A>F E>F | G4
E>F   | A2 A2 B2 | c2 A>G E>C | D2 F2 A2 | d4 ||
A>A | c2 e3 f | e4 A>A | c>d e>^d e>f | e3 
cd>c | B2 B3 c | d2 c2 B2 | A2 ^G2 F2 | E4
E>E | c>d e3 f | e4 A>A | c>d e>^d e>f | e3
cd>c | B2 B3 c | d2 c2 B2 | A2 c2 e2 | a4 |]
<end>
<start>
